svg/icon-reddit-light.svg

<?xml version="1.0" encoding="UTF-8" standalone="no"?>
<svg
   xmlns:dc="http://purl.org/dc/elements/1.1/"
   xmlns:cc="http://creativecommons.org/ns#"
   xmlns:rdf="http://www.w3.org/1999/02/22-rdf-syntax-ns#"
   xmlns:svg="http://www.w3.org/2000/svg"
   xmlns="http://www.w3.org/2000/svg"
   xmlns:sodipodi="http://sodipodi.sourceforge.net/DTD/sodipodi-0.dtd"
   xmlns:inkscape="http://www.inkscape.org/namespaces/inkscape"
   id="Reddit_logo"
   data-name="Reddit logo"
   viewBox="0 0 32 32"
   version="1.1"
   sodipodi:docname="icon-reddit.svg"
   width="32"
   height="32"
   inkscape:version="0.92.4 (unknown)">
  <metadata
     id="metadata15">
    <rdf:RDF>
      <cc:Work
         rdf:about="">
        <dc:format>image/svg+xml</dc:format>
        <dc:type
           rdf:resource="http://purl.org/dc/dcmitype/StillImage" />
        <dc:title>Reddit logo</dc:title>
      </cc:Work>
    </rdf:RDF>
  </metadata>
  <sodipodi:namedview
     pagecolor="#ffffff"
     bordercolor="#666666"
     borderopacity="1"
     objecttolerance="10"
     gridtolerance="10"
     guidetolerance="10"
     inkscape:pageopacity="0"
     inkscape:pageshadow="2"
     inkscape:window-width="1366"
     inkscape:window-height="704"
     id="namedview13"
     showgrid="false"
     inkscape:zoom="8"
     inkscape:cx="-8.540428"
     inkscape:cy="27.904365"
     inkscape:window-x="0"
     inkscape:window-y="27"
     inkscape:window-maximized="1"
     inkscape:current-layer="Reddit_logo" />
  <defs
     id="defs4">
    <style
       id="style2">.cls-1{fill:#ff4500;}.cls-2{fill:#fff;}</style>
  </defs>
  <title
     id="title6">Reddit logo</title>
  <path
     style="fill:#ffffff;stroke-width:0.32653061"
     d="M 16 0 A 16 16 0 0 0 0 16 A 16 16 0 0 0 16 32 A 16 16 0 0 0 32 16 A 16 16 0 0 0 16 0 z M 17.369141 5.3984375 A 0.52897959 0.52897959 0 0 1 17.507812 5.4101562 L 21.832031 6.3671875 A 1.7110204 1.7110204 0 1 1 21.652344 7.3242188 L 17.734375 6.4550781 L 16.404297 12.169922 A 12.333061 12.333061 0 0 1 23.509766 14.521484 A 2.517551 2.517551 0 0 1 27.373047 14.824219 A 2.4587755 2.4587755 0 0 1 27.507812 15.0625 A 2.6122449 2.6122449 0 0 1 26.332031 18.556641 A 6.0963265 6.0963265 0 0 1 23.71875 24.271484 A 12.927347 12.927347 0 0 1 16 26.599609 A 12.920816 12.920816 0 0 1 8.28125 24.271484 A 6.0963265 6.0963265 0 0 1 5.6679688 18.556641 A 2.4587755 2.4587755 0 0 1 5.4296875 18.423828 A 2.6122449 2.6122449 0 0 1 4.6269531 14.830078 A 2.7004082 2.7004082 0 0 1 4.9199219 14.484375 A 2.5273469 2.5273469 0 0 1 8.4902344 14.521484 A 12.336327 12.336327 0 0 1 15.408203 12.173828 L 16.878906 5.8085938 A 0.52897959 0.52897959 0 0 1 17.369141 5.3984375 z M 11.957031 16.291016 A 1.7273469 1.7273469 0 0 0 10.226562 18.021484 A 1.7306122 1.7306122 0 1 0 11.957031 16.291016 z M 20.042969 16.291016 A 1.7273469 1.7273469 0 0 0 18.3125 18.021484 A 1.7306122 1.7306122 0 1 0 20.042969 16.291016 z M 11.896484 22.113281 A 0.39836735 0.39836735 0 0 0 11.626953 22.791016 A 7.3991837 7.3991837 0 0 0 20.373047 22.791016 A 0.39836735 0.39836735 0 0 0 19.947266 22.138672 A 6.7461224 6.7461224 0 0 1 12.052734 22.138672 A 0.39836735 0.39836735 0 0 0 11.896484 22.113281 z "
     id="circle8" />
</svg>

<svg width="32" height="32" data-name="Reddit logo" version="1.1" viewBox="0 0 32 32" xmlns="http://www.w3.org/2000/svg"><defs><style>.cls-1{fill:#ff4500;}.cls-2{fill:#fff;}</style></defs><path d="m16 0a16 16 0 0 0-16 16 16 16 0 0 0 16 16 16 16 0 0 0 16-16 16 16 0 0 0-16-16zm1.37 5.4a0.529 0.529 0 0 1 0.139 0.0117l4.32 0.957a1.71 1.71 0 1 1-0.18 0.957l-3.92-0.869-1.33 5.71a12.3 12.3 0 0 1 7.11 2.35 2.52 2.52 0 0 1 3.86 0.303 2.46 2.46 0 0 1 0.135 0.238 2.61 2.61 0 0 1-1.18 3.49 6.1 6.1 0 0 1-2.61 5.71 12.9 12.9 0 0 1-7.72 2.33 12.9 12.9 0 0 1-7.72-2.33 6.1 6.1 0 0 1-2.61-5.71 2.46 2.46 0 0 1-0.238-0.133 2.61 2.61 0 0 1-0.803-3.59 2.7 2.7 0 0 1 0.293-0.346 2.53 2.53 0 0 1 3.57 0.0371 12.3 12.3 0 0 1 6.92-2.35l1.47-6.37a0.529 0.529 0 0 1 0.49-0.41zm-5.41 10.9a1.73 1.73 0 0 0-1.73 1.73 1.73 1.73 0 1 0 1.73-1.73zm8.09 0a1.73 1.73 0 0 0-1.73 1.73 1.73 1.73 0 1 0 1.73-1.73zm-8.15 5.82a0.398 0.398 0 0 0-0.27 0.678 7.4 7.4 0 0 0 8.75 0 0.398 0.398 0 0 0-0.426-0.652 6.75 6.75 0 0 1-7.89 0 0.398 0.398 0 0 0-0.156-0.0254z" fill="#fff" stroke-width=".327"/></svg>
